!! 00000] TT[WS
!!!OTL: Hua li qiang
!!!ARE: Asia, China, Shanxi Yuanping
!! Ethnic Group: Han
!! WII, 230 (1)
!!!SCT: J0742
!!!YEM: Copyright 1995, estate of Helmut Schaffrath.
**kern
*ICvox
*Ivox
*M2/4
*k[f#]
*G:
{16dd
16ee
4.dd
=1
16dd
16ee
8b
4dd
=2
8b
16a
16g
8a
8b
=3
4ee
4r}
=4
{8b
8g
8a
16a
16b
=5
16b
8.g
4a
=6
8b
8e
8e
8d
=7
4g
4r}
==
!!!AGN: Xiaodiao. XÅshi, Xinminge
!!!ONB: ESAC (Essen Associative Code) Database: CHINA
!!!AMT: simple duple
!!!AIN: vox
!!!EED: Helmut Schaffrath
!!!EEV: 1.0
*-
